Numix-Light/16/status/indicator-keyboard-Sl-3.svg

<?xml version="1.0" encoding="UTF-8" standalone="no"?>
<svg
   xmlns:dc="http://purl.org/dc/elements/1.1/"
   xmlns:cc="http://creativecommons.org/ns#"
   xmlns:rdf="http://www.w3.org/1999/02/22-rdf-syntax-ns#"
   xmlns:svg="http://www.w3.org/2000/svg"
   xmlns="http://www.w3.org/2000/svg"
   xmlns:sodipodi="http://sodipodi.sourceforge.net/DTD/sodipodi-0.dtd"
   xmlns:inkscape="http://www.inkscape.org/namespaces/inkscape"
   viewBox="0 0 16 16"
   id="svg2"
   version="1.1"
   inkscape:version="0.91 r13725"
   sodipodi:docname="indicator-keyboard-Sl-3.svg">
  <metadata
     id="metadata14">
    <rdf:RDF>
      <cc:Work
         rdf:about="">
        <dc:format>image/svg+xml</dc:format>
        <dc:type
           rdf:resource="http://purl.org/dc/dcmitype/StillImage" />
      </cc:Work>
    </rdf:RDF>
  </metadata>
  <defs
     id="defs12" />
  <sodipodi:namedview
     pagecolor="#ffffff"
     bordercolor="#666666"
     borderopacity="1"
     objecttolerance="10"
     gridtolerance="10"
     guidetolerance="10"
     inkscape:pageopacity="0"
     inkscape:pageshadow="2"
     inkscape:window-width="640"
     inkscape:window-height="480"
     id="namedview10"
     showgrid="false"
     inkscape:zoom="14.75"
     inkscape:cx="8"
     inkscape:cy="8"
     inkscape:window-x="65"
     inkscape:window-y="24"
     inkscape:window-maximized="0"
     inkscape:current-layer="svg2" />
  <path
     style="fill:#353535;fill-opacity:1"
     d="M 1.5996094 0 C 0.71320937 2.9605947e-16 0 0.71320937 0 1.5996094 L 0 14.400391 C 2.9605947e-16 15.286791 0.71320937 16 1.5996094 16 L 14.400391 16 C 15.286791 16 16 15.286791 16 14.400391 L 16 1.5996094 C 16 0.71320937 15.286791 0 14.400391 0 L 1.5996094 0 z M 8.9648438 4.1113281 L 8.9648438 9.9628906 C 8.9648438 10.106891 8.976 10.2225 9 10.3125 C 9.03 10.3965 9.0729531 10.465531 9.1269531 10.519531 C 9.1809531 10.567531 9.2499844 10.604906 9.3339844 10.628906 C 9.4239844 10.652906 9.5284375 10.673406 9.6484375 10.691406 L 9.5683594 11.177734 C 9.3703594 11.171734 9.1949219 11.143703 9.0449219 11.095703 C 8.9009219 11.053703 8.7797344 10.988438 8.6777344 10.898438 C 8.5817344 10.802437 8.5051719 10.681109 8.4511719 10.537109 C 8.4031719 10.387109 8.3808594 10.202469 8.3808594 9.9804688 L 8.3808594 4.2207031 L 8.9648438 4.1113281 z M 5.4414062 4.7246094 C 5.6094062 4.7246094 5.7735469 4.7357656 5.9355469 4.7597656 C 6.0975469 4.7837656 6.2467656 4.817375 6.3847656 4.859375 C 6.5287656 4.895375 6.6594375 4.936375 6.7734375 4.984375 C 6.8934375 5.032375 6.9923125 5.0846719 7.0703125 5.1386719 L 6.8535156 5.6503906 C 6.6795156 5.5303906 6.4668437 5.4352813 6.2148438 5.3632812 C 5.9688438 5.2912813 5.7020625 5.2558594 5.4140625 5.2558594 C 5.2160625 5.2558594 5.0332344 5.2763594 4.8652344 5.3183594 C 4.7032344 5.3543594 4.5614062 5.4178125 4.4414062 5.5078125 C 4.3214062 5.5918125 4.2262969 5.6980781 4.1542969 5.8300781 C 4.0882969 5.9620781 4.0546875 6.1225938 4.0546875 6.3085938 C 4.0546875 6.5005937 4.0901094 6.6629219 4.1621094 6.7949219 C 4.2341094 6.9269219 4.3329844 7.0407187 4.4589844 7.1367188 C 4.5909844 7.2327187 4.7439688 7.3184844 4.9179688 7.3964844 C 5.0919688 7.4744844 5.2823281 7.556625 5.4863281 7.640625 C 5.7323281 7.742625 5.9617344 7.8433125 6.1777344 7.9453125 C 6.3997344 8.0473125 6.5919062 8.1686406 6.7539062 8.3066406 C 6.9159063 8.4446406 7.0465781 8.6125469 7.1425781 8.8105469 C 7.2385781 9.0085469 7.2851563 9.2510625 7.2851562 9.5390625 C 7.2851562 10.103063 7.0874062 10.526594 6.6914062 10.808594 C 6.3014062 11.090594 5.7716094 11.230469 5.0996094 11.230469 C 4.8596094 11.230469 4.6394063 11.215547 4.4414062 11.185547 C 4.2434062 11.155547 4.0661562 11.120125 3.9101562 11.078125 C 3.7541562 11.030125 3.623625 10.981594 3.515625 10.933594 C 3.407625 10.885594 3.3217187 10.844594 3.2617188 10.808594 L 3.4609375 10.277344 C 3.5209375 10.313344 3.601125 10.354344 3.703125 10.402344 C 3.805125 10.450344 3.9264531 10.498875 4.0644531 10.546875 C 4.2024531 10.588875 4.35725 10.624297 4.53125 10.654297 C 4.70525 10.684297 4.8974219 10.699219 5.1074219 10.699219 C 5.5934219 10.699219 5.9721875 10.613453 6.2421875 10.439453 C 6.5121875 10.259453 6.6464844 9.970219 6.6464844 9.5742188 C 6.6464844 9.3462187 6.6017188 9.1578125 6.5117188 9.0078125 C 6.4277187 8.8518125 6.3139219 8.7230938 6.1699219 8.6210938 C 6.0259219 8.5130937 5.8598281 8.4235625 5.6738281 8.3515625 C 5.4878281 8.2735625 5.2938438 8.1914219 5.0898438 8.1074219 C 4.8318438 8.0054219 4.6004844 7.9009687 4.3964844 7.7929688 C 4.1924844 7.6849688 4.019 7.5655937 3.875 7.4335938 C 3.731 7.2955937 3.6190156 7.1388438 3.5410156 6.9648438 C 3.4690156 6.7908437 3.4335937 6.5875156 3.4335938 6.3535156 C 3.4335938 5.8195156 3.6108438 5.4146719 3.9648438 5.1386719 C 4.3188437 4.8626719 4.8114062 4.7246094 5.4414062 4.7246094 z M 11.369141 8.7539062 C 11.571941 8.7539062 11.744372 8.7793781 11.888672 8.8300781 C 12.036872 8.8807781 12.160313 8.953275 12.257812 9.046875 C 12.355312 9.136575 12.427809 9.2463 12.474609 9.375 C 12.521409 9.4997999 12.544922 9.6350031 12.544922 9.7832031 C 12.544922 10.021103 12.480263 10.217041 12.351562 10.369141 C 12.226762 10.517341 12.064134 10.625106 11.865234 10.691406 C 11.974434 10.718706 12.080241 10.759859 12.181641 10.818359 C 12.286941 10.872959 12.380991 10.945456 12.462891 11.035156 C 12.544791 11.120956 12.611409 11.226762 12.662109 11.351562 C 12.712809 11.476363 12.738281 11.623316 12.738281 11.791016 C 12.738281 11.962616 12.706931 12.119372 12.644531 12.263672 C 12.586031 12.407972 12.4959 12.535331 12.375 12.644531 C 12.258 12.749831 12.107128 12.834084 11.923828 12.896484 C 11.740528 12.954984 11.52695 12.984375 11.28125 12.984375 C 11.15255 12.984375 11.033028 12.974578 10.923828 12.955078 C 10.818528 12.939478 10.724478 12.919884 10.642578 12.896484 C 10.560678 12.873084 10.490141 12.849572 10.431641 12.826172 C 10.377041 12.802772 10.335894 12.783178 10.308594 12.767578 L 10.408203 12.427734 C 10.431603 12.443334 10.470791 12.462928 10.525391 12.486328 C 10.579991 12.509728 10.64465 12.533241 10.71875 12.556641 C 10.79675 12.576141 10.882962 12.593775 10.976562 12.609375 C 11.074062 12.624975 11.179869 12.632813 11.292969 12.632812 C 11.663469 12.632812 11.927991 12.556397 12.087891 12.404297 C 12.247791 12.248297 12.328125 12.040597 12.328125 11.779297 C 12.328125 11.607697 12.294816 11.464662 12.228516 11.351562 C 12.166116 11.238462 12.077944 11.148331 11.964844 11.082031 C 11.855644 11.011831 11.726325 10.962847 11.578125 10.935547 C 11.433825 10.904347 11.280988 10.888672 11.117188 10.888672 L 11.058594 10.888672 L 11.058594 10.574219 L 11.193359 10.574219 C 11.298659 10.574219 11.406425 10.564422 11.515625 10.544922 C 11.628725 10.521522 11.728659 10.480375 11.818359 10.421875 C 11.911959 10.363375 11.988375 10.285 12.046875 10.1875 C 12.109275 10.09 12.140625 9.9646001 12.140625 9.8125 C 12.140625 9.6838 12.119072 9.5760281 12.076172 9.4863281 C 12.033272 9.3927281 11.974491 9.3182719 11.900391 9.2636719 C 11.830191 9.2090719 11.745937 9.1698844 11.648438 9.1464844 C 11.554837 9.1191844 11.456862 9.1054687 11.351562 9.1054688 C 11.140962 9.1054688 10.976375 9.1348594 10.859375 9.1933594 C 10.742375 9.2518594 10.646366 9.3067219 10.572266 9.3574219 L 10.408203 9.0585938 C 10.447203 9.0312937 10.496187 8.9999437 10.554688 8.9648438 C 10.617088 8.9297437 10.689584 8.8964344 10.771484 8.8652344 C 10.853384 8.8340344 10.943516 8.8085625 11.041016 8.7890625 C 11.142416 8.7656625 11.252141 8.7539062 11.369141 8.7539062 z "
     id="path4" />
</svg>

<svg xmlns="http://www.w3.org/2000/svg" viewBox="0 0 16 16">
 <path d="m 1.6 0 c -0.886 0 -1.6 0.713 -1.6 1.6 l 0 12.801 c 0 0.886 0.713 1.6 1.6 1.6 l 12.801 0 c 0.886 0 1.6 -0.713 1.6 -1.6 l 0 -12.801 c 0 -0.886 -0.713 -1.6 -1.6 -1.6 l -12.801 0 z m 7.365 4.111 l 0 5.852 c 0 0.144 0.011 0.26 0.035 0.35 c 0.03 0.084 0.073 0.153 0.127 0.207 c 0.054 0.048 0.123 0.085 0.207 0.109 c 0.09 0.024 0.194 0.044 0.314 0.063 l -0.08 0.486 c -0.198 -0.006 -0.373 -0.034 -0.523 -0.082 c -0.144 -0.042 -0.265 -0.107 -0.367 -0.197 c -0.096 -0.096 -0.173 -0.217 -0.227 -0.361 c -0.048 -0.15 -0.07 -0.335 -0.07 -0.557 l 0 -5.76 l 0.584 -0.109 z m -3.523 0.613 c 0.168 0 0.332 0.011 0.494 0.035 c 0.162 0.024 0.311 0.058 0.449 0.1 c 0.144 0.036 0.275 0.077 0.389 0.125 c 0.12 0.048 0.219 0.1 0.297 0.154 l -0.217 0.512 c -0.174 -0.12 -0.387 -0.215 -0.639 -0.287 c -0.246 -0.072 -0.513 -0.107 -0.801 -0.107 c -0.198 0 -0.381 0.02 -0.549 0.063 c -0.162 0.036 -0.304 0.099 -0.424 0.189 c -0.12 0.084 -0.215 0.19 -0.287 0.322 c -0.066 0.132 -0.1 0.293 -0.1 0.479 c 0 0.192 0.035 0.354 0.107 0.486 c 0.072 0.132 0.171 0.246 0.297 0.342 c 0.132 0.096 0.285 0.182 0.459 0.26 c 0.174 0.078 0.364 0.16 0.568 0.244 c 0.246 0.102 0.475 0.203 0.691 0.305 c 0.222 0.102 0.414 0.223 0.576 0.361 c 0.162 0.138 0.293 0.306 0.389 0.504 c 0.096 0.198 0.143 0.441 0.143 0.729 c 0 0.564 -0.198 0.988 -0.594 1.27 c -0.39 0.282 -0.92 0.422 -1.592 0.422 c -0.24 0 -0.46 -0.015 -0.658 -0.045 c -0.198 -0.03 -0.375 -0.065 -0.531 -0.107 c -0.156 -0.048 -0.287 -0.097 -0.395 -0.145 c -0.108 -0.048 -0.194 -0.089 -0.254 -0.125 l 0.199 -0.531 c 0.06 0.036 0.14 0.077 0.242 0.125 c 0.102 0.048 0.223 0.097 0.361 0.145 c 0.138 0.042 0.293 0.077 0.467 0.107 c 0.174 0.03 0.366 0.045 0.576 0.045 c 0.486 0 0.865 -0.086 1.135 -0.26 c 0.27 -0.18 0.404 -0.469 0.404 -0.865 c 0 -0.228 -0.045 -0.416 -0.135 -0.566 c -0.084 -0.156 -0.198 -0.285 -0.342 -0.387 c -0.144 -0.108 -0.31 -0.198 -0.496 -0.27 c -0.186 -0.078 -0.38 -0.16 -0.584 -0.244 c -0.258 -0.102 -0.489 -0.206 -0.693 -0.314 c -0.204 -0.108 -0.377 -0.227 -0.521 -0.359 c -0.144 -0.138 -0.256 -0.295 -0.334 -0.469 c -0.072 -0.174 -0.107 -0.377 -0.107 -0.611 c 0 -0.534 0.177 -0.939 0.531 -1.215 c 0.354 -0.276 0.847 -0.414 1.477 -0.414 z m 5.928 4.03 c 0.203 0 0.375 0.025 0.52 0.076 c 0.148 0.051 0.272 0.123 0.369 0.217 c 0.098 0.09 0.17 0.199 0.217 0.328 c 0.047 0.125 0.07 0.26 0.07 0.408 c 0 0.238 -0.065 0.434 -0.193 0.586 c -0.125 0.148 -0.287 0.256 -0.486 0.322 c 0.109 0.027 0.215 0.068 0.316 0.127 c 0.105 0.055 0.199 0.127 0.281 0.217 c 0.082 0.086 0.149 0.192 0.199 0.316 c 0.051 0.125 0.076 0.272 0.076 0.439 c 0 0.172 -0.031 0.328 -0.094 0.473 c -0.059 0.144 -0.149 0.272 -0.27 0.381 c -0.117 0.105 -0.268 0.19 -0.451 0.252 c -0.183 0.059 -0.397 0.088 -0.643 0.088 c -0.129 0 -0.248 -0.01 -0.357 -0.029 c -0.105 -0.016 -0.199 -0.035 -0.281 -0.059 c -0.082 -0.023 -0.152 -0.047 -0.211 -0.07 c -0.055 -0.023 -0.096 -0.043 -0.123 -0.059 l 0.1 -0.34 c 0.023 0.016 0.063 0.035 0.117 0.059 c 0.055 0.023 0.119 0.047 0.193 0.07 c 0.078 0.019 0.164 0.037 0.258 0.053 c 0.098 0.016 0.203 0.023 0.316 0.023 c 0.37 0 0.635 -0.076 0.795 -0.229 c 0.16 -0.156 0.24 -0.364 0.24 -0.625 c 0 -0.172 -0.033 -0.315 -0.1 -0.428 c -0.062 -0.113 -0.151 -0.203 -0.264 -0.27 c -0.109 -0.07 -0.239 -0.119 -0.387 -0.146 c -0.144 -0.031 -0.297 -0.047 -0.461 -0.047 l -0.059 0 l 0 -0.314 l 0.135 0 c 0.105 0 0.213 -0.01 0.322 -0.029 c 0.113 -0.023 0.213 -0.065 0.303 -0.123 c 0.094 -0.059 0.17 -0.137 0.229 -0.234 c 0.062 -0.098 0.094 -0.223 0.094 -0.375 c 0 -0.129 -0.022 -0.236 -0.064 -0.326 c -0.043 -0.094 -0.102 -0.168 -0.176 -0.223 c -0.07 -0.055 -0.154 -0.094 -0.252 -0.117 c -0.094 -0.027 -0.192 -0.041 -0.297 -0.041 c -0.211 0 -0.375 0.029 -0.492 0.088 c -0.117 0.059 -0.213 0.113 -0.287 0.164 l -0.164 -0.299 c 0.039 -0.027 0.088 -0.059 0.146 -0.094 c 0.062 -0.035 0.135 -0.068 0.217 -0.1 c 0.082 -0.031 0.172 -0.057 0.27 -0.076 c 0.101 -0.023 0.211 -0.035 0.328 -0.035 z" style="fill:#353535;fill-opacity:1"/>
</svg>
